<?xml version="1.0" encoding="UTF-8"?>
<map version="1.10" tiledversion="1.12.1" orientation="orthogonal" renderorder="right-down" width="40" height="25" tilewidth="32" tileheight="32" infinite="0" nextlayerid="6" nextobjectid="1">
 <editorsettings>
  <export target="map1.json" format="json"/>
 </editorsettings>
 <tileset firstgid="1" name="island" tilewidth="32" tileheight="32" tilecount="120" columns="15">
  <image source="island.png" width="480" height="256"/>
  <tile id="0">
   <properties>
    <property name="collider" type="bool" value="false"/>
   </properties>
  </tile>
  <tile id="1">
   <properties>
    <property name="collider" type="bool" value="false"/>
   </properties>
  </tile>
  <tile id="2">
   <properties>
    <property name="collider" type="bool" value="false"/>
   </properties>
  </tile>
  <tile id="3">
   <properties>
    <property name="collider" type="bool" value="false"/>
   </properties>
  </tile>
  <tile id="4">
   <properties>
    <property name="collider" type="bool" value="true"/>
   </properties>
  </tile>
  <tile id="5">
   <properties>
    <property name="collider" type="bool" value="true"/>
   </properties>
  </tile>
  <tile id="6">
   <properties>
    <property name="collider" type="bool" value="true"/>
   </properties>
  </tile>
  <tile id="7">
   <properties>
    <property name="collider" type="bool" value="false"/>
   </properties>
  </tile>
  <tile id="8">
   <properties>
    <property name="collider" type="bool" value="false"/>
   </properties>
  </tile>
  <tile id="9">
   <properties>
    <property name="collider" type="bool" value="false"/>
   </properties>
  </tile>
  <tile id="10">
   <properties>
    <property name="collider" type="bool" value="false"/>
   </properties>
  </tile>
  <tile id="11">
   <properties>
    <property name="collider" type="bool" value="false"/>
   </properties>
  </tile>
  <tile id="12">
   <properties>
    <property name="collider" type="bool" value="false"/>
   </properties>
  </tile>
  <tile id="13">
   <properties>
    <property name="collider" type="bool" value="false"/>
   </properties>
  </tile>
  <tile id="14">
   <properties>
    <property name="collider" type="bool" value="false"/>
   </properties>
  </tile>
  <tile id="15">
   <properties>
    <property name="collider" type="bool" value="false"/>
   </properties>
  </tile>
  <tile id="16">
   <properties>
    <property name="collider" type="bool" value="false"/>
   </properties>
  </tile>
  <tile id="17">
   <properties>
    <property name="collider" type="bool" value="false"/>
   </properties>
  </tile>
  <tile id="18">
   <properties>
    <property name="collider" type="bool" value="false"/>
   </properties>
  </tile>
  <tile id="19">
   <properties>
    <property name="collider" type="bool" value="true"/>
   </properties>
  </tile>
  <tile id="20">
   <properties>
    <property name="collider" type="bool" value="false"/>
   </properties>
  </tile>
  <tile id="21">
   <properties>
    <property name="collider" type="bool" value="true"/>
   </properties>
  </tile>
  <tile id="22">
   <properties>
    <property name="collider" type="bool" value="false"/>
   </properties>
  </tile>
  <tile id="23">
   <properties>
    <property name="collider" type="bool" value="false"/>
   </properties>
  </tile>
  <tile id="24">
   <properties>
    <property name="collider" type="bool" value="false"/>
   </properties>
  </tile>
  <tile id="25">
   <properties>
    <property name="collider" type="bool" value="false"/>
   </properties>
  </tile>
  <tile id="26">
   <properties>
    <property name="collider" type="bool" value="false"/>
   </properties>
  </tile>
  <tile id="27">
   <properties>
    <property name="collider" type="bool" value="false"/>
   </properties>
  </tile>
  <tile id="28">
   <properties>
    <property name="collider" type="bool" value="false"/>
   </properties>
  </tile>
  <tile id="29">
   <properties>
    <property name="collider" type="bool" value="false"/>
   </properties>
  </tile>
  <tile id="30">
   <properties>
    <property name="collider" type="bool" value="false"/>
   </properties>
  </tile>
  <tile id="31">
   <properties>
    <property name="collider" type="bool" value="false"/>
   </properties>
  </tile>
  <tile id="32">
   <properties>
    <property name="collider" type="bool" value="false"/>
   </properties>
  </tile>
  <tile id="33">
   <properties>
    <property name="collider" type="bool" value="false"/>
   </properties>
  </tile>
  <tile id="34">
   <properties>
    <property name="collider" type="bool" value="true"/>
   </properties>
  </tile>
  <tile id="35">
   <properties>
    <property name="collider" type="bool" value="true"/>
   </properties>
  </tile>
  <tile id="36">
   <properties>
    <property name="collider" type="bool" value="true"/>
   </properties>
  </tile>
  <tile id="37">
   <properties>
    <property name="collider" type="bool" value="false"/>
   </properties>
  </tile>
  <tile id="38">
   <properties>
    <property name="collider" type="bool" value="false"/>
   </properties>
  </tile>
  <tile id="39">
   <properties>
    <property name="collider" type="bool" value="false"/>
   </properties>
  </tile>
  <tile id="40">
   <properties>
    <property name="collider" type="bool" value="false"/>
   </properties>
  </tile>
  <tile id="41">
   <properties>
    <property name="collider" type="bool" value="false"/>
   </properties>
  </tile>
  <tile id="42">
   <properties>
    <property name="collider" type="bool" value="true"/>
   </properties>
  </tile>
  <tile id="43">
   <properties>
    <property name="collider" type="bool" value="false"/>
   </properties>
  </tile>
  <tile id="44">
   <properties>
    <property name="collider" type="bool" value="false"/>
   </properties>
  </tile>
  <tile id="45">
   <properties>
    <property name="collider" type="bool" value="false"/>
   </properties>
  </tile>
  <tile id="46">
   <properties>
    <property name="collider" type="bool" value="false"/>
   </properties>
  </tile>
  <tile id="47">
   <properties>
    <property name="collider" type="bool" value="false"/>
   </properties>
  </tile>
  <tile id="48">
   <properties>
    <property name="collider" type="bool" value="false"/>
   </properties>
  </tile>
  <tile id="49">
   <properties>
    <property name="collider" type="bool" value="false"/>
   </properties>
  </tile>
  <tile id="50">
   <properties>
    <property name="collider" type="bool" value="false"/>
   </properties>
  </tile>
  <tile id="51">
   <properties>
    <property name="collider" type="bool" value="false"/>
   </properties>
  </tile>
  <tile id="52">
   <properties>
    <property name="collider" type="bool" value="false"/>
   </properties>
  </tile>
  <tile id="53">
   <properties>
    <property name="collider" type="bool" value="false"/>
   </properties>
  </tile>
  <tile id="54">
   <properties>
    <property name="collider" type="bool" value="false"/>
   </properties>
  </tile>
  <tile id="55">
   <properties>
    <property name="collider" type="bool" value="false"/>
   </properties>
  </tile>
  <tile id="56">
   <properties>
    <property name="collider" type="bool" value="false"/>
   </properties>
  </tile>
  <tile id="57">
   <properties>
    <property name="collider" type="bool" value="true"/>
   </properties>
  </tile>
  <tile id="58">
   <properties>
    <property name="collider" type="bool" value="false"/>
   </properties>
  </tile>
  <tile id="59">
   <properties>
    <property name="collider" type="bool" value="false"/>
   </properties>
  </tile>
  <tile id="60">
   <properties>
    <property name="collider" type="bool" value="true"/>
   </properties>
  </tile>
  <tile id="61">
   <properties>
    <property name="collider" type="bool" value="true"/>
   </properties>
  </tile>
  <tile id="62">
   <properties>
    <property name="collider" type="bool" value="true"/>
   </properties>
  </tile>
  <tile id="63">
   <properties>
    <property name="collider" type="bool" value="true"/>
   </properties>
  </tile>
  <tile id="64">
   <properties>
    <property name="collider" type="bool" value="true"/>
   </properties>
  </tile>
  <tile id="65">
   <properties>
    <property name="collider" type="bool" value="true"/>
   </properties>
  </tile>
  <tile id="66">
   <properties>
    <property name="collider" type="bool" value="true"/>
   </properties>
  </tile>
  <tile id="67">
   <properties>
    <property name="collider" type="bool" value="true"/>
   </properties>
  </tile>
  <tile id="68">
   <properties>
    <property name="collider" type="bool" value="false"/>
   </properties>
  </tile>
  <tile id="69">
   <properties>
    <property name="collider" type="bool" value="false"/>
   </properties>
  </tile>
  <tile id="70">
   <properties>
    <property name="collider" type="bool" value="false"/>
   </properties>
  </tile>
  <tile id="71">
   <properties>
    <property name="collider" type="bool" value="false"/>
   </properties>
  </tile>
  <tile id="72">
   <properties>
    <property name="collider" type="bool" value="true"/>
   </properties>
  </tile>
  <tile id="73">
   <properties>
    <property name="collider" type="bool" value="false"/>
   </properties>
  </tile>
  <tile id="74">
   <properties>
    <property name="collider" type="bool" value="false"/>
   </properties>
  </tile>
  <tile id="75">
   <properties>
    <property name="collider" type="bool" value="true"/>
   </properties>
  </tile>
  <tile id="76">
   <properties>
    <property name="collider" type="bool" value="true"/>
   </properties>
  </tile>
  <tile id="77">
   <properties>
    <property name="collider" type="bool" value="true"/>
   </properties>
  </tile>
  <tile id="78">
   <properties>
    <property name="collider" type="bool" value="true"/>
   </properties>
  </tile>
  <tile id="79">
   <properties>
    <property name="collider" type="bool" value="true"/>
   </properties>
  </tile>
  <tile id="80">
   <properties>
    <property name="collider" type="bool" value="true"/>
   </properties>
  </tile>
  <tile id="81">
   <properties>
    <property name="collider" type="bool" value="true"/>
   </properties>
  </tile>
  <tile id="82">
   <properties>
    <property name="collider" type="bool" value="true"/>
   </properties>
  </tile>
  <tile id="83">
   <properties>
    <property name="collider" type="bool" value="false"/>
   </properties>
  </tile>
  <tile id="84">
   <properties>
    <property name="collider" type="bool" value="false"/>
   </properties>
  </tile>
  <tile id="85">
   <properties>
    <property name="collider" type="bool" value="false"/>
   </properties>
  </tile>
  <tile id="86">
   <properties>
    <property name="collider" type="bool" value="false"/>
   </properties>
  </tile>
  <tile id="87">
   <properties>
    <property name="collider" type="bool" value="true"/>
   </properties>
  </tile>
  <tile id="88">
   <properties>
    <property name="collider" type="bool" value="false"/>
   </properties>
  </tile>
  <tile id="89">
   <properties>
    <property name="collider" type="bool" value="false"/>
   </properties>
  </tile>
  <tile id="90">
   <properties>
    <property name="collider" type="bool" value="false"/>
   </properties>
  </tile>
  <tile id="91">
   <properties>
    <property name="collider" type="bool" value="false"/>
   </properties>
  </tile>
  <tile id="92">
   <properties>
    <property name="collider" type="bool" value="false"/>
   </properties>
  </tile>
  <tile id="93">
   <properties>
    <property name="collider" type="bool" value="false"/>
   </properties>
  </tile>
  <tile id="94">
   <properties>
    <property name="collider" type="bool" value="false"/>
   </properties>
  </tile>
  <tile id="95">
   <properties>
    <property name="collider" type="bool" value="false"/>
   </properties>
  </tile>
  <tile id="96">
   <properties>
    <property name="collider" type="bool" value="false"/>
   </properties>
  </tile>
  <tile id="97">
   <properties>
    <property name="collider" type="bool" value="false"/>
   </properties>
  </tile>
  <tile id="98">
   <properties>
    <property name="collider" type="bool" value="false"/>
   </properties>
  </tile>
  <tile id="99">
   <properties>
    <property name="collider" type="bool" value="false"/>
   </properties>
  </tile>
  <tile id="100">
   <properties>
    <property name="collider" type="bool" value="false"/>
   </properties>
  </tile>
  <tile id="101">
   <properties>
    <property name="collider" type="bool" value="false"/>
   </properties>
  </tile>
  <tile id="102">
   <properties>
    <property name="collider" type="bool" value="false"/>
   </properties>
  </tile>
  <tile id="103">
   <properties>
    <property name="collider" type="bool" value="false"/>
   </properties>
  </tile>
  <tile id="104">
   <properties>
    <property name="collider" type="bool" value="false"/>
   </properties>
  </tile>
  <tile id="105">
   <properties>
    <property name="collider" type="bool" value="false"/>
   </properties>
  </tile>
  <tile id="106">
   <properties>
    <property name="collider" type="bool" value="false"/>
   </properties>
  </tile>
  <tile id="107">
   <properties>
    <property name="collider" type="bool" value="false"/>
   </properties>
  </tile>
  <tile id="108">
   <properties>
    <property name="collider" type="bool" value="false"/>
   </properties>
  </tile>
  <tile id="109">
   <properties>
    <property name="collider" type="bool" value="false"/>
   </properties>
  </tile>
  <tile id="110">
   <properties>
    <property name="collider" type="bool" value="false"/>
   </properties>
  </tile>
  <tile id="111">
   <properties>
    <property name="collider" type="bool" value="false"/>
   </properties>
  </tile>
  <tile id="112">
   <properties>
    <property name="collider" type="bool" value="false"/>
   </properties>
  </tile>
  <tile id="113">
   <properties>
    <property name="collider" type="bool" value="false"/>
   </properties>
  </tile>
  <tile id="114">
   <properties>
    <property name="collider" type="bool" value="false"/>
   </properties>
  </tile>
  <tile id="115">
   <properties>
    <property name="collider" type="bool" value="false"/>
   </properties>
  </tile>
  <tile id="116">
   <properties>
    <property name="collider" type="bool" value="false"/>
   </properties>
  </tile>
  <tile id="117">
   <properties>
    <property name="collider" type="bool" value="false"/>
   </properties>
  </tile>
  <tile id="118">
   <properties>
    <property name="collider" type="bool" value="false"/>
   </properties>
  </tile>
  <tile id="119">
   <properties>
    <property name="collider" type="bool" value="false"/>
   </properties>
  </tile>
 </tileset>
 <tileset firstgid="121" name="objects2" tilewidth="32" tileheight="32" tilecount="156" columns="13">
  <image source="objects2.png" width="416" height="384"/>
  <tile id="26">
   <properties>
    <property name="collider" type="bool" value="true"/>
   </properties>
  </tile>
  <tile id="27">
   <properties>
    <property name="collider" type="bool" value="true"/>
   </properties>
  </tile>
  <tile id="28">
   <properties>
    <property name="collider" type="bool" value="true"/>
   </properties>
  </tile>
  <tile id="29">
   <properties>
    <property name="collider" type="bool" value="true"/>
   </properties>
  </tile>
  <tile id="44">
   <properties>
    <property name="collider" type="bool" value="true"/>
   </properties>
  </tile>
  <tile id="46">
   <properties>
    <property name="collider" type="bool" value="true"/>
   </properties>
  </tile>
  <tile id="47">
   <properties>
    <property name="collider" type="bool" value="true"/>
   </properties>
  </tile>
  <tile id="48">
   <properties>
    <property name="collider" type="bool" value="true"/>
   </properties>
  </tile>
  <tile id="49">
   <properties>
    <property name="collider" type="bool" value="true"/>
   </properties>
  </tile>
  <tile id="50">
   <properties>
    <property name="collider" type="bool" value="true"/>
   </properties>
  </tile>
  <tile id="54">
   <properties>
    <property name="collider" type="bool" value="true"/>
   </properties>
  </tile>
  <tile id="55">
   <properties>
    <property name="collider" type="bool" value="true"/>
   </properties>
  </tile>
  <tile id="56">
   <properties>
    <property name="collider" type="bool" value="true"/>
   </properties>
  </tile>
  <tile id="57">
   <properties>
    <property name="collider" type="bool" value="true"/>
   </properties>
  </tile>
  <tile id="59">
   <properties>
    <property name="collider" type="bool" value="true"/>
   </properties>
  </tile>
  <tile id="60">
   <properties>
    <property name="collider" type="bool" value="true"/>
   </properties>
  </tile>
  <tile id="61">
   <properties>
    <property name="collider" type="bool" value="true"/>
   </properties>
  </tile>
  <tile id="62">
   <properties>
    <property name="collider" type="bool" value="true"/>
   </properties>
  </tile>
  <tile id="63">
   <properties>
    <property name="collider" type="bool" value="true"/>
   </properties>
  </tile>
  <tile id="65">
   <properties>
    <property name="collider" type="bool" value="true"/>
   </properties>
  </tile>
  <tile id="66">
   <properties>
    <property name="collider" type="bool" value="true"/>
   </properties>
  </tile>
  <tile id="67">
   <properties>
    <property name="collider" type="bool" value="true"/>
   </properties>
  </tile>
  <tile id="69">
   <properties>
    <property name="collider" type="bool" value="true"/>
   </properties>
  </tile>
  <tile id="70">
   <properties>
    <property name="collider" type="bool" value="true"/>
   </properties>
  </tile>
  <tile id="72">
   <properties>
    <property name="collider" type="bool" value="true"/>
   </properties>
  </tile>
  <tile id="73">
   <properties>
    <property name="collider" type="bool" value="true"/>
   </properties>
  </tile>
  <tile id="74">
   <properties>
    <property name="collider" type="bool" value="true"/>
   </properties>
  </tile>
  <tile id="75">
   <properties>
    <property name="collider" type="bool" value="true"/>
   </properties>
  </tile>
  <tile id="76">
   <properties>
    <property name="collider" type="bool" value="true"/>
   </properties>
  </tile>
  <tile id="91">
   <properties>
    <property name="collider" type="bool" value="true"/>
   </properties>
  </tile>
  <tile id="92">
   <properties>
    <property name="collider" type="bool" value="true"/>
   </properties>
  </tile>
  <tile id="93">
   <properties>
    <property name="collider" type="bool" value="true"/>
   </properties>
  </tile>
  <tile id="94">
   <properties>
    <property name="collider" type="bool" value="true"/>
   </properties>
  </tile>
  <tile id="95">
   <properties>
    <property name="collider" type="bool" value="true"/>
   </properties>
  </tile>
  <tile id="96">
   <properties>
    <property name="collider" type="bool" value="true"/>
   </properties>
  </tile>
  <tile id="97">
   <properties>
    <property name="collider" type="bool" value="true"/>
   </properties>
  </tile>
  <tile id="123">
   <properties>
    <property name="collider" type="bool" value="true"/>
   </properties>
  </tile>
  <tile id="124">
   <properties>
    <property name="collider" type="bool" value="true"/>
   </properties>
  </tile>
 </tileset>
 <tileset firstgid="277" name="fence" tilewidth="32" tileheight="32" tilecount="16" columns="4">
  <image source="fence.png" width="128" height="128"/>
 </tileset>
 <layer id="1" name="water" width="40" height="25">
  <data encoding="csv">
73,43,88,88,58,88,43,43,73,58,88,88,58,58,73,43,88,58,58,88,58,43,58,58,88,88,73,58,73,73,73,73,43,58,88,88,58,88,88,58,
58,88,58,73,73,73,73,88,58,58,43,43,88,88,88,43,73,73,43,43,43,43,43,43,73,88,73,58,88,88,88,73,58,88,43,43,43,43,88,88,
73,58,59,59,59,59,59,59,59,59,59,59,59,59,59,59,59,59,59,59,59,59,59,58,43,43,73,73,58,43,58,59,59,59,59,59,59,43,73,58,
43,59,59,59,59,59,59,59,59,59,59,59,59,59,59,59,59,59,59,59,59,59,59,59,73,88,88,73,88,59,59,59,59,59,59,59,59,59,58,88,
73,59,59,59,59,59,59,59,59,59,59,59,59,59,59,59,59,59,59,59,59,59,59,59,59,59,88,59,59,59,59,59,59,59,59,59,59,59,73,88,
58,59,59,59,59,59,59,59,59,88,59,59,59,59,59,59,59,59,59,59,59,59,59,59,59,59,59,59,59,59,59,59,59,59,59,59,59,59,73,73,
43,59,59,59,59,59,59,59,59,59,88,88,59,59,59,59,59,59,59,59,59,59,59,59,59,59,59,59,59,59,59,59,59,59,59,59,59,59,88,88,
73,88,59,59,59,59,59,59,88,88,59,88,88,59,59,59,59,59,59,59,59,59,59,59,59,59,59,59,59,59,59,59,59,59,59,59,59,59,43,88,
73,58,73,59,59,59,59,59,59,59,59,88,59,59,59,59,59,59,59,59,59,59,59,59,59,59,59,59,59,59,59,59,59,59,59,59,59,59,43,43,
88,73,88,59,59,59,59,59,59,59,59,59,59,59,59,59,59,59,59,59,59,59,59,59,59,59,59,59,59,59,59,59,59,59,59,59,59,73,88,58,
73,88,88,88,59,59,59,59,59,59,59,59,59,59,59,59,59,59,59,59,59,59,59,59,59,59,59,59,59,59,59,59,59,59,59,59,59,88,58,58,
88,88,43,73,59,59,59,59,59,59,59,59,59,59,59,59,59,59,59,59,59,59,59,59,59,59,59,59,59,59,59,59,59,59,59,59,59,58,58,58,
73,73,73,59,59,59,59,59,59,59,59,59,59,59,59,59,59,59,59,59,59,59,59,59,59,59,59,59,59,59,59,59,59,59,59,59,59,59,88,58,
73,73,43,59,59,59,59,59,59,59,59,59,59,59,59,59,59,59,59,59,59,59,59,59,59,59,59,59,59,59,59,59,59,59,59,59,59,59,43,58,
43,43,73,59,59,59,59,59,59,59,59,59,59,59,59,59,59,59,59,59,59,59,59,59,59,59,59,59,59,59,59,59,59,59,59,59,59,59,58,58,
73,88,73,59,59,59,59,59,59,59,59,59,59,59,59,59,59,59,59,59,59,59,59,59,59,59,59,59,59,59,59,59,59,59,59,59,59,59,43,43,
43,58,58,59,59,59,59,59,59,59,59,59,59,59,59,59,59,59,59,59,59,59,59,59,59,59,59,59,59,59,59,59,59,59,59,59,59,59,73,73,
88,43,59,59,59,59,59,59,59,59,59,59,59,59,59,59,59,59,59,59,59,59,59,59,59,59,59,59,59,59,59,59,59,59,59,59,59,59,73,58,
88,88,59,59,59,59,59,59,59,59,59,59,59,59,59,59,59,59,59,59,59,59,59,59,59,59,59,59,59,59,59,59,59,59,59,59,59,59,58,73,
73,88,59,59,59,59,59,59,59,59,59,59,59,59,59,59,59,59,59,59,59,59,59,59,59,59,59,59,59,59,59,59,59,59,59,59,59,59,58,58,
88,58,59,59,59,59,59,73,43,59,59,59,59,59,59,59,59,59,59,59,59,59,59,59,59,59,59,59,59,58,73,73,43,43,73,43,43,58,73,58,
73,43,58,43,73,73,58,88,88,73,88,59,59,59,59,59,59,59,59,59,59,59,59,59,59,59,59,59,59,43,73,58,43,88,88,73,88,73,58,88,
43,43,73,43,73,88,58,73,73,43,43,43,58,58,43,43,58,43,59,59,59,59,59,59,59,59,59,59,73,73,88,73,88,88,43,88,88,73,58,43,
88,43,73,58,43,58,73,88,58,43,73,58,88,73,43,73,43,43,73,73,43,73,59,59,59,73,58,73,43,43,58,88,88,43,43,43,43,43,43,43,
58,58,43,43,58,43,43,88,88,88,58,58,73,58,88,88,88,43,88,73,73,88,43,73,73,58,58,43,88,88,58,88,58,73,73,43,58,43,58,58
</data>
 </layer>
 <layer id="2" name="terrain" width="40" height="25">
  <data encoding="csv">
0,0,0,0,0,0,0,0,0,0,0,0,0,0,0,0,0,0,0,0,0,0,0,0,0,0,0,0,0,0,0,0,0,0,0,0,0,0,0,0,
0,0,0,0,0,0,0,0,0,0,0,0,0,0,0,0,0,0,0,0,0,0,0,0,0,0,0,0,0,0,0,0,0,0,0,0,0,0,0,0,
0,0,5,6,6,6,6,6,6,6,6,6,6,6,6,6,6,6,6,6,6,6,7,0,0,0,0,0,0,0,0,5,6,6,6,6,7,0,0,0,
0,5,111,21,21,21,21,21,21,21,21,21,21,21,21,21,21,21,21,21,21,21,110,7,0,0,0,0,0,5,6,111,21,21,21,21,110,7,0,0,
0,20,17,17,17,17,21,21,21,21,21,21,21,21,21,21,21,21,21,21,21,21,21,110,6,7,0,5,6,111,21,21,21,21,21,21,21,22,0,0,
0,20,21,21,21,17,21,21,21,21,21,21,21,21,21,21,21,21,21,21,21,21,21,21,21,110,6,111,21,21,21,21,21,21,21,21,21,22,0,0,
0,35,96,21,21,17,17,17,21,21,21,21,21,21,21,21,21,21,21,21,21,21,21,21,21,21,21,21,21,21,21,21,21,21,21,21,21,22,0,0,
0,0,35,96,21,21,21,17,21,21,21,21,21,21,21,21,21,21,21,21,21,21,21,21,21,21,21,21,21,21,21,21,21,21,21,21,21,22,0,0,
0,0,0,20,21,21,21,17,21,21,17,21,21,21,21,21,21,21,21,21,21,21,21,21,21,21,21,21,21,21,21,21,21,21,21,21,95,37,0,0,
0,0,0,35,96,21,21,17,17,17,17,21,21,21,21,21,21,21,21,21,21,21,21,21,21,21,21,21,21,21,21,21,21,21,21,21,22,0,0,0,
0,0,0,0,20,21,21,21,17,21,21,21,21,21,21,21,21,21,21,21,21,21,21,21,21,21,21,21,21,21,21,21,21,21,21,21,22,0,0,0,
0,0,0,0,20,21,21,21,17,21,21,21,21,21,21,21,21,21,21,21,21,21,21,21,21,21,21,21,21,21,21,21,21,21,21,21,22,0,0,0,
0,0,0,5,111,21,21,21,17,21,21,21,21,21,21,21,21,21,21,21,21,21,21,21,21,21,21,21,21,21,21,21,21,21,21,21,110,7,0,0,
0,0,0,20,21,21,21,21,17,21,21,21,21,21,21,21,21,21,21,21,21,21,21,21,21,21,21,21,21,21,21,21,21,21,21,21,21,22,0,0,
0,0,0,20,21,21,21,21,17,21,21,21,21,21,21,21,21,21,21,21,21,21,21,21,21,21,21,21,21,21,21,21,21,21,21,21,21,22,0,0,
0,0,0,20,21,21,21,21,17,21,21,21,21,21,21,21,21,21,21,21,21,21,21,21,21,21,21,21,21,21,21,21,21,21,21,21,21,22,0,0,
0,0,0,20,21,21,21,21,17,21,21,21,21,21,21,21,21,21,21,21,21,21,21,21,21,21,21,21,21,21,21,21,21,21,21,21,21,22,0,0,
0,0,5,111,21,21,21,21,17,17,21,21,17,21,21,21,21,21,21,21,21,21,21,21,21,21,21,21,21,21,21,21,21,21,21,21,21,22,0,0,
0,0,20,21,21,21,21,21,21,17,17,17,17,21,21,21,21,21,21,21,21,21,21,21,21,21,21,21,21,21,21,21,21,21,21,21,21,22,0,0,
0,0,20,21,21,21,95,36,36,96,21,21,21,21,21,21,21,21,21,21,21,21,21,21,21,21,21,21,95,36,36,36,36,36,36,36,36,37,0,0,
0,0,35,36,36,36,37,0,0,35,36,96,21,21,21,21,21,21,21,21,21,21,21,21,21,21,21,21,22,0,0,0,0,0,0,0,0,0,0,0,
0,0,0,0,0,0,0,0,0,0,0,35,36,36,36,36,36,36,96,21,21,21,21,21,21,21,21,95,37,0,0,0,0,0,0,0,0,0,0,0,
0,0,0,0,0,0,0,0,0,0,0,0,0,0,0,0,0,0,35,36,36,36,96,21,95,36,36,37,0,0,0,0,0,0,0,0,0,0,0,0,
0,0,0,0,0,0,0,0,0,0,0,0,0,0,0,0,0,0,0,0,0,0,35,36,37,0,0,0,0,0,0,0,0,0,0,0,0,0,0,0,
0,0,0,0,0,0,0,0,0,0,0,0,0,0,0,0,0,0,0,0,0,0,0,0,0,0,0,0,0,0,0,0,0,0,0,0,0,0,0,0
</data>
 </layer>
 <layer id="3" name="terrain2" width="40" height="25">
  <data encoding="csv">
0,0,0,0,0,0,0,0,0,0,0,0,0,0,0,0,0,0,0,0,0,0,0,0,0,0,0,0,0,0,0,0,0,0,0,0,0,0,0,0,
0,0,0,0,0,0,0,0,0,0,0,0,0,0,0,0,0,0,0,0,0,0,0,0,0,0,0,0,0,0,0,0,0,0,0,0,0,0,0,0,
0,0,0,0,0,0,0,0,0,0,0,0,0,0,0,0,0,0,0,0,0,0,0,0,0,0,0,0,0,0,0,0,0,0,0,0,0,0,0,0,
0,0,0,0,0,0,0,0,5,6,6,6,6,6,6,6,7,0,0,0,0,0,0,0,0,0,0,0,0,0,0,0,0,0,0,0,0,0,0,0,
0,0,0,0,0,0,0,0,20,21,21,21,21,21,21,21,22,0,0,0,0,0,0,0,0,0,0,0,0,0,0,0,0,0,0,0,0,0,0,0,
0,0,0,0,0,0,0,0,20,21,21,21,21,21,21,21,22,0,0,0,0,0,0,0,0,0,0,0,0,0,0,0,0,0,0,0,0,0,0,0,
0,0,0,0,0,0,0,0,20,21,17,17,17,21,21,21,22,0,0,0,0,0,0,0,0,0,0,0,0,0,0,0,0,0,0,0,0,0,0,0,
0,0,0,0,0,0,0,0,20,21,17,40,66,66,66,66,67,0,0,0,0,0,0,0,0,0,0,0,0,0,0,0,0,0,0,0,0,0,0,0,
0,0,0,0,0,0,0,0,80,81,106,82,0,0,0,0,0,0,0,0,0,0,0,0,0,0,0,0,0,0,0,0,0,0,0,0,0,0,0,0,
0,0,0,0,0,0,0,0,0,0,0,0,0,0,0,0,0,0,0,0,0,0,0,0,0,0,0,0,0,0,0,0,0,0,0,0,0,0,0,0,
0,0,0,0,0,0,0,0,0,0,0,0,0,0,0,0,0,0,0,0,0,0,0,0,0,0,0,0,0,0,0,0,0,0,0,0,0,0,0,0,
0,0,0,0,0,0,0,0,0,0,0,0,0,0,0,0,0,0,0,0,0,0,0,0,0,0,0,0,0,0,0,0,0,0,0,0,0,0,0,0,
0,0,0,0,0,0,0,0,0,0,5,6,6,6,6,6,6,6,7,0,0,0,0,0,0,0,0,0,0,0,0,0,0,0,0,0,0,0,0,0,
0,0,0,0,0,0,0,0,0,0,20,21,21,21,21,21,21,21,22,0,0,0,0,0,0,0,0,0,0,0,0,0,0,0,0,0,0,0,0,0,
0,0,0,0,0,0,0,0,0,0,20,21,21,21,21,21,21,21,22,0,0,0,0,0,0,0,0,0,0,0,0,0,0,0,0,0,0,0,0,0,
0,0,0,0,0,0,0,0,0,0,20,21,17,17,17,21,21,21,22,0,0,0,0,0,0,0,0,0,0,0,0,0,0,0,0,0,0,0,0,0,
0,0,0,0,0,0,0,0,0,0,20,21,17,40,66,66,66,66,67,0,0,0,0,0,0,0,0,0,0,0,0,0,0,0,0,0,0,0,0,0,
0,0,0,0,0,0,0,0,0,0,80,81,106,82,0,0,0,0,0,0,0,0,0,0,0,0,0,0,0,0,0,0,0,0,0,0,0,0,0,0,
0,0,0,0,0,0,0,0,0,0,0,0,0,0,0,0,0,0,0,0,0,0,0,0,0,0,0,0,0,0,0,0,0,0,0,0,0,0,0,0,
0,0,0,0,0,0,0,0,0,0,0,0,0,0,0,0,0,0,0,0,0,0,0,0,0,0,0,0,0,0,0,0,0,0,0,0,0,0,0,0,
0,0,0,0,0,0,0,0,0,0,0,0,0,0,0,0,0,0,0,0,0,0,0,0,0,0,0,0,0,0,0,0,0,0,0,0,0,0,0,0,
0,0,0,0,0,0,0,0,0,0,0,0,0,0,0,0,0,0,0,0,0,0,0,0,0,0,0,0,0,0,0,0,0,0,0,0,0,0,0,0,
0,0,0,0,0,0,0,0,0,0,0,0,0,0,0,0,0,0,0,0,0,0,0,0,0,0,0,0,0,0,0,0,0,0,0,0,0,0,0,0,
0,0,0,0,0,0,0,0,0,0,0,0,0,0,0,0,0,0,0,0,0,0,0,0,0,0,0,0,0,0,0,0,0,0,0,0,0,0,0,0,
0,0,0,0,0,0,0,0,0,0,0,0,0,0,0,0,0,0,0,0,0,0,0,0,0,0,0,0,0,0,0,0,0,0,0,0,0,0,0,0
</data>
 </layer>
 <layer id="4" name="objects" width="40" height="25">
  <data encoding="csv">
0,0,0,0,0,0,0,0,0,0,0,0,0,0,0,0,0,0,0,0,0,0,0,0,0,0,0,0,0,0,0,0,0,0,0,0,0,0,0,0,
0,0,0,0,0,0,0,0,0,0,0,0,0,0,0,123,124,0,0,0,0,0,0,0,0,0,0,0,0,0,0,0,0,0,0,0,0,0,0,0,
0,0,0,0,0,0,0,0,0,123,124,0,0,0,0,136,137,0,0,0,0,0,0,0,0,0,0,0,0,0,0,0,0,0,0,0,0,0,0,0,
0,0,0,0,0,0,0,0,0,136,137,0,0,0,0,149,150,0,0,0,0,0,0,0,0,0,0,0,0,0,0,0,0,0,0,0,0,0,0,0,
0,0,0,0,0,0,0,0,0,149,150,0,0,0,0,0,0,0,0,0,0,0,0,0,0,0,0,0,0,0,0,0,0,0,0,0,0,0,0,0,
0,0,0,0,0,0,0,0,0,0,0,0,0,0,0,0,0,0,0,0,0,0,0,0,0,0,0,0,0,0,0,0,0,0,0,0,0,0,0,0,
0,0,0,0,0,0,0,0,0,191,0,289,290,290,290,290,291,0,0,0,0,0,0,0,0,0,0,0,0,0,0,0,0,0,0,0,0,0,0,0,
0,0,0,0,0,0,0,0,0,0,0,0,0,0,0,0,0,0,0,0,0,0,0,0,0,0,0,0,0,0,0,0,0,0,0,0,0,0,0,0,
0,0,0,0,0,0,0,0,0,0,0,0,0,0,0,0,0,0,0,0,0,0,0,0,0,0,0,0,0,0,0,0,0,0,0,0,0,0,0,0,
0,0,0,0,0,0,0,0,0,0,0,0,0,0,0,0,0,0,0,0,0,0,0,0,0,0,0,0,0,0,0,0,0,0,0,0,0,0,0,0,
0,0,0,0,0,0,0,0,0,0,0,0,0,0,0,0,0,123,124,0,0,0,0,0,0,0,0,0,0,0,0,0,0,0,0,0,0,0,0,0,
0,0,0,0,0,0,0,0,0,0,0,123,124,0,0,0,0,136,137,0,0,0,0,0,0,0,0,0,0,0,0,0,0,0,0,0,0,0,0,0,
0,0,0,0,0,0,0,0,0,0,0,136,137,0,0,0,0,149,150,0,0,0,0,0,0,0,0,0,0,0,0,0,0,0,0,0,0,0,0,0,
0,0,0,0,0,0,0,0,0,0,0,149,150,0,0,0,0,0,0,0,0,0,0,0,0,0,0,0,0,0,0,0,0,0,0,0,0,0,0,0,
0,0,0,0,0,0,0,0,0,0,0,0,0,0,0,0,0,0,0,0,0,0,0,0,0,0,0,0,0,0,0,0,0,0,0,0,0,0,0,0,
0,0,0,0,0,0,0,0,0,0,0,191,0,289,290,290,290,290,291,0,0,0,0,0,0,0,0,0,0,0,0,0,0,0,0,0,0,0,0,0,
0,0,0,0,0,0,0,0,0,0,0,0,0,0,0,0,0,0,0,0,0,0,0,0,0,0,0,0,0,0,0,0,0,0,0,0,0,0,0,0,
0,0,0,0,0,0,0,0,0,0,0,0,0,0,0,0,0,0,0,0,0,0,0,0,0,0,0,0,0,0,0,0,0,0,0,0,0,0,0,0,
0,0,0,0,0,0,0,0,0,0,0,0,0,0,0,0,0,0,0,0,0,0,0,0,0,0,0,0,0,0,0,0,0,0,0,0,0,0,0,0,
0,0,0,0,0,0,0,0,0,0,0,0,0,0,0,0,0,0,0,0,0,0,0,0,0,0,0,0,0,0,0,0,0,0,0,0,0,0,0,0,
0,0,0,0,0,0,0,0,0,0,0,0,0,0,0,0,0,0,0,0,0,0,0,0,0,0,0,0,0,0,0,0,0,0,0,0,0,0,0,0,
0,0,0,0,0,0,0,0,0,0,0,0,0,0,0,0,0,0,0,0,0,0,0,0,0,0,0,0,0,0,0,0,0,0,0,0,0,0,0,0,
0,0,0,0,0,0,0,0,0,0,0,0,0,0,0,0,0,0,0,0,0,0,0,0,0,0,0,0,0,0,0,0,0,0,0,0,0,0,0,0,
0,0,0,0,0,0,0,0,0,0,0,0,0,0,0,0,0,0,0,0,0,0,0,0,0,0,0,0,0,0,0,0,0,0,0,0,0,0,0,0,
0,0,0,0,0,0,0,0,0,0,0,0,0,0,0,0,0,0,0,0,0,0,0,0,0,0,0,0,0,0,0,0,0,0,0,0,0,0,0,0
</data>
 </layer>
 <layer id="5" name="objects2" width="40" height="25">
  <data encoding="csv">
0,0,0,0,0,0,0,0,0,0,0,129,130,131,0,0,0,0,0,0,0,0,0,0,0,0,0,0,0,0,0,0,0,0,0,0,0,0,0,0,
0,0,0,0,0,0,0,0,0,0,141,142,143,144,145,0,0,0,0,0,0,0,0,0,0,0,0,0,0,0,0,0,0,0,0,0,0,0,0,0,
0,0,0,0,0,0,0,0,0,0,154,155,156,157,158,123,124,0,0,0,0,0,0,0,0,0,0,0,0,0,0,0,0,0,0,0,0,0,0,0,
0,0,0,0,0,0,0,0,0,0,167,168,169,170,171,136,137,0,0,0,0,0,0,0,0,0,0,0,0,0,0,0,0,0,0,0,0,0,0,0,
0,0,0,0,0,0,0,0,0,0,180,181,182,183,184,149,150,0,0,0,0,0,0,0,0,0,0,0,0,0,0,0,0,0,0,0,0,0,0,0,
0,0,0,0,0,0,0,0,0,0,193,194,195,196,197,264,265,0,0,0,0,0,0,0,0,0,0,0,0,0,0,0,0,0,0,0,0,0,0,0,
0,0,0,0,0,0,0,0,0,0,206,207,208,209,210,0,0,0,0,0,0,0,0,0,0,0,0,0,0,0,0,0,0,0,0,0,0,0,0,0,
0,0,0,0,0,0,0,0,0,0,0,0,0,0,0,0,0,0,0,0,0,0,0,0,0,0,0,0,0,0,0,0,0,0,0,0,0,0,0,0,
0,0,0,0,0,0,0,0,0,0,0,0,0,0,0,0,0,0,0,0,0,0,0,0,0,0,0,0,0,0,0,0,0,0,0,0,0,0,0,0,
0,0,0,0,0,0,0,0,0,0,0,0,0,129,130,131,0,0,0,0,0,0,0,0,0,0,0,0,0,0,0,0,0,0,0,0,0,0,0,0,
0,0,0,0,0,0,0,0,0,0,0,0,141,142,143,144,145,0,0,0,0,0,0,0,0,0,0,0,0,0,0,0,0,0,0,0,0,0,0,0,
0,0,0,0,0,0,0,0,0,0,0,0,154,155,156,157,158,123,124,0,0,0,0,0,0,0,0,0,0,0,0,0,0,0,0,0,0,0,0,0,
0,0,0,0,0,0,0,0,0,0,0,0,167,168,169,170,171,136,137,0,0,0,0,0,0,0,0,0,0,0,0,0,0,0,0,0,0,0,0,0,
0,0,0,0,0,0,0,0,0,0,0,0,180,181,182,183,184,149,150,0,0,0,0,0,0,0,0,0,0,0,0,0,0,0,0,0,0,0,0,0,
0,0,0,0,0,0,0,0,0,0,0,0,193,194,195,196,197,264,265,0,0,0,0,0,0,0,0,0,0,0,0,0,0,0,0,0,0,0,0,0,
0,0,0,0,0,0,0,0,0,0,0,0,206,207,208,209,210,0,0,0,0,0,0,0,0,0,0,0,0,0,0,0,0,0,0,0,0,0,0,0,
0,0,0,0,0,0,0,0,0,0,0,0,0,0,0,0,0,0,0,0,0,0,0,0,0,0,0,0,0,0,0,0,0,0,0,0,0,0,0,0,
0,0,0,0,0,0,0,0,0,0,0,0,0,0,0,0,0,0,0,0,0,0,0,0,0,0,0,0,0,0,0,0,0,0,0,0,0,0,0,0,
0,0,0,0,0,0,0,0,0,0,0,0,0,0,0,0,0,0,0,0,0,0,0,0,0,0,0,0,0,0,0,0,0,0,0,0,0,0,0,0,
0,0,0,0,0,0,0,0,0,0,0,0,0,0,0,0,0,0,0,0,0,0,0,0,0,0,0,0,0,0,0,0,0,0,0,0,0,0,0,0,
0,0,0,0,0,0,0,0,0,0,0,0,0,0,0,0,0,0,0,0,0,0,0,0,0,0,0,0,0,0,0,0,0,0,0,0,0,0,0,0,
0,0,0,0,0,0,0,0,0,0,0,0,0,0,0,0,0,0,0,0,0,0,0,0,0,0,0,0,0,0,0,0,0,0,0,0,0,0,0,0,
0,0,0,0,0,0,0,0,0,0,0,0,0,0,0,0,0,0,0,0,0,0,0,0,0,0,0,0,0,0,0,0,0,0,0,0,0,0,0,0,
0,0,0,0,0,0,0,0,0,0,0,0,0,0,0,0,0,0,0,0,0,0,0,0,0,0,0,0,0,0,0,0,0,0,0,0,0,0,0,0,
0,0,0,0,0,0,0,0,0,0,0,0,0,0,0,0,0,0,0,0,0,0,0,0,0,0,0,0,0,0,0,0,0,0,0,0,0,0,0,0
</data>
 </layer>
</map>
